X: 361
T: The Drogheda weavers
C: anon.
O: Ireland
B: Francis O'Neill: "The Dance Music of Ireland" (1907) no. 361
R: Double jig
Z: Transcribed by Frank Nordberg - http://www.musicaviva.com
F: http://www.musicaviva.com/abc/tunes/ireland/oneill-1001/oneill-1001-036
1.abc
m: Tn2 = (3n/m/n/ o/n/
m: Tn3 = n(3n/o/n/ m/n/
M: 6/8
L: 1/8
K: D
AFD DFD|AFD (G2E)|AFD DF(G|A)FD TE2d|AFD DFD|AFD (G2E)|DFA (B2d)|AFD E2D:
|
|:(D/E/F/G/A/B/ Tc3)|TB3 A2D|DFA (d2B)|AFD E2D|(D/E/F/G/A/B/ Tc3)|TB3 A2B
|ABc d2B|AFD E2d:|
%Bar 8 last note org. 4th note
W:
W:
W: From Musica Viva - http://www.musicaviva.com
W: the Internet center for free sheet music downloads.


